X:1
T:Title
L:1/8
M:2/4
K:Eb
V:1 treble nm="Grand Piano"
V:1
 z[Q:1/4=100] C2 G | G2 G2- | G B2 A | G2 G2- | G C2 G | G2 G2- | G A2 =E | F2 F2- | F D2 E | %9
 F2 F2- | F D2 E | F2 F2- | FD DE | F3 A | G4- |[M:1/4] G2 | G2 |[M:2/4] c3 c | d3 B | A4- | %20
 A2 F2 | B3 B | c3 A | G4- | G2 E2 | A3 A | =B3 d | d4- | d2 ed | c3 G- | G G2 e | d2 c2- | c4- | %33
 c2 z2 |] %34

